!!!OTL: Wie schoen ist das laendliche Leben, mein Haeuschen steht auf gruener Flur
!!!ARE: Europa, Mitteleuropa, Deutschland, Untermainfranken, Spessart
!!!SCT: D0161
!!!YEM: Copyright 1995, estate of Helmut Schaffrath.
**kern
*ICvox
*Ivox
*M6/8
*k[b-e-]
*B-:
{8f
=1
8f
8g
8a
8b-
8cc
8dd
=2
4.ee-
4dd}
{8dd
=3
8.dd
16cc
8cc
8ee-
8a
8a
=4
4.b-
4r}
{8f
=5
8f
8g
8a
8b-
8cc
8dd
=6
4.ee-
4dd}
{8dd
=7
8.dd
16cc
8cc
8ee-
8a
8a
=8
4.b-
4r}
{8dd
=9
8cc
8dd
8cc
8cc
8dd
8cc
=10
4cc
8ff
8ff
8een}
{8dd
=11
8cc
8dd
8cc
8b-
16a
16g
8f
=12
4a
8cc
8ee-
8dd}
{8cc
=13
8.b-
16b-
8b-
8b-
8cc
8dd
=14
4.ee-
4dd}
{8dd
=15
8.dd
16cc
8cc
8ee-
8a
8a
=16
4.b-
4r}
==
!!!AGN: Bauern - Lied
!! moduliertin die Dominanttonart; Pause in der zweiten Zeile rhythmisch
!!    korrigiert; Inzipit = entfernte Variante zum Lied
!!!ONB: ESAC (Essen Associative Code) Database: DVA
!!!AMT: compound duple
!!!AIN: vox
!!!EED: Helmut Schaffrath
!!!EEV: 1.0
*-
